X: 19
T:Brian Tobin's Reel
R:reel
C:Emile Benoit
Z:Measures 7 &amp; 14 are 6/4 meter
M:C|
L:1/8
Q:120
Z:Gerry Strong
K:D
|:faaf a2 fa|g2 ed cdeg|fefa gfeg|fedf ec A2|faaf a2 fa|g2 ed cdeg|fefa
gece d2 d2:|
|:Addc d2 eg|fdec d2 AB|=c2 G=c E=cG=c|=c=cEG FED=C|Addc d2 eg|fdec dc A
2|fefa gece d2d2:|

